X: 180925
T: Ryan's #1
S: "First Collection of Traditional Irish Music" (M.Mulvihill)
Z: B.Black
L: 1/8
M: C|
R: hornpipe
K: D
dB|(3ABA ^GB A=GFE|(3DED CE DA,CE|DFAF GABd|gfed cAGB|
(3ABA ^GB A=GFE|(3DED CE DA,CE|DFAF GABd|gece d2 :|
fg|(3agf dB AGFE|(3DED FA dega|bagf edcd|\
(3efe (3dcB (3ABA (3GFE|
DFAd (3fga fd|gfga ba^ga|fdAF GECD|(3DED FA d2 :|
